X: 46
T:Nine Pint Cloggie
% Nottingham Music Database
P:AAB
S:Kay Graham, via EF
M:4/4
L:1/4
K:G
P:A
c|"G"B3/2G/2 G/2G/2G|"G"G2 DE|"F"=F2 cF|"F"A/2c/2=F/2A/2 c/2F/2A/2c/2|\
"G"B3/2G/2 G/2G/2G|"G"G2 DF|"G"G2 "Em"g3/2d/2|"Bm"Bd -"D7"d:|
P:B
f|"G"g3/2a/2 gd|"G"Bc de|"F"=f3/2g/2 fc|"F"AB cd|"G"g3/2a/2 gd|
"G"Bc "D"d3/2f/2|"Em"g/2f/2e/2f/2 gd|"Bm"Bd -"D7"df|"G"g3/2a/2 gd|"G"Bc de|
"F"=f3/2g/2 fc|"F"AB c2|"G"d2 "Em"G2|"D7"D2 DF|"G"G2 "Em"g3/2d/2|"Bm"Bd -"D7"d\
||<end>
<start>
